X: 81
T: The Soldier's Return
S:https://trillian.mit.edu/~jc/music/abc/mirror/BruceShawyer/strathspey/Soldiers_Return.abc
R:Strathspey
Q: 128
K:G
M:4/4
L:1/16
|:G2A2|B4 D3E D4 G3F|E3D EG3 A4 G2A2|B4 D4 c3B A2G2|E6 F2 G4 G2A2|
B4 D3E D4 G3F|E3D EG3 A4 G2A2|B4 D4 c3B A2G2|E6 F2 G4 D4|
G3A B2c2 d6 d2|e3d c2B2 A6 D2|G3A B2c2 d3e d2c2|B6 c2 d4 D2D2|
G3A B2c2 d6 d2|e3d c2B2 A4 G3A|B4 D4 c3B A2G2|E6 F2 G4:|

